src/assets/icons/letters,fancy,serif-i.svg

<svg width="48" height="48" viewBox="0 0 48 48" fill="none" xmlns="http://www.w3.org/2000/svg">
<path d="M30.7885 37H17.2225V35.48C18.0838 35.4547 18.7678 35.3787 19.2745 35.252C19.8065 35.1 20.2118 34.834 20.4905 34.454C20.7692 34.074 20.9592 33.542 21.0605 32.858C21.1618 32.1487 21.2125 31.1987 21.2125 30.008V14.732C21.2125 13.668 21.1618 12.794 21.0605 12.11C20.9845 11.4007 20.8198 10.8433 20.5665 10.438C20.3132 10.0327 19.9458 9.754 19.4645 9.602C19.0085 9.42467 18.3878 9.31067 17.6025 9.26V7.74H30.4085V9.26C29.6232 9.31067 28.9898 9.42467 28.5085 9.602C28.0525 9.754 27.6978 10.0327 27.4445 10.438C27.1912 10.8433 27.0138 11.4007 26.9125 12.11C26.8365 12.794 26.7985 13.668 26.7985 14.732V30.008C26.7985 31.1987 26.8365 32.1487 26.9125 32.858C27.0138 33.542 27.2038 34.074 27.4825 34.454C27.7865 34.834 28.1918 35.1 28.6985 35.252C29.2305 35.3787 29.9272 35.4547 30.7885 35.48V37Z" fill="black"/>
</svg>

<svg xmlns="http://www.w3.org/2000/svg" width="48" height="48" fill="none" viewBox="0 0 48 48">
  <path fill="#000" d="M30.788 37H17.222v-1.52c.862-.025 1.546-.101 2.052-.228.532-.152.938-.418 1.216-.798.28-.38.47-.912.57-1.596.102-.71.152-1.66.152-2.85V14.732c0-1.064-.05-1.938-.151-2.622-.076-.71-.241-1.267-.494-1.672a1.941 1.941 0 00-1.102-.836c-.456-.177-1.077-.291-1.863-.342V7.74h12.806v1.52c-.785.05-1.418.165-1.9.342-.456.152-.81.43-1.063.836-.254.405-.431.963-.532 1.672-.076.684-.114 1.558-.114 2.622v15.276c0 1.19.038 2.14.114 2.85.1.684.29 1.216.57 1.596.303.38.709.646 1.215.798.532.127 1.23.203 2.09.228V37z"/>
</svg>
